!!!COM: Music21
!!!OTL: march_Atholl-And-Breadalbane-Gathering--The
!!!OMV: march_Atholl-And-Breadalbane-Gathering--The
**kern
*clefG2
*k[f#c#]
*M4/4
=1
16aLL
16bJJ
=||
4cc#
16cc#LL
16ee
16dd
16bJJ
2ryy
=
8cc#L
8aJ
16aLL
16a
16cc#
16eeJJ
2ryy
=
8.ff#L
16eeJk
8cc#L
16aaL
16eeJJ
2ryy
=
8cc#L
8bJ
8bL
16aL
16bJJ
4cc#
16cc#LL
16ee
16dd
16bJJ
=
8cc#L
8aJ
16aLL
16a
16cc#
16eeJJ
2ryy
!!linebreak:original
=
8ff#L
8aaJ
16eeLL
16ff#
16ee
16cc#JJ
2ryy
=
8b
8aL
16aL
16aJJ
2ryy
8ryy
=||
4cc#
16cc#LL
16ee
16dd
16bJJ
2ryy
=
8cc#L
8aJ
16aLL
16a
16cc#
16eeJJ
2ryy
=
8.ff#L
16eeJk
8cc#L
16aaL
16eeJJ
2ryy
!!linebreak:original
=
8cc#L
8bJ
8bL
16aL
16bJJ
4cc#
16cc#LL
16ee
16dd
16bJJ
=
8cc#L
8aJ
16aLL
16a
16cc#
16eeJJ
2ryy
=
8ff#L
8aaJ
16eeLL
16ff#
16ee
16cc#JJ
2ryy
=
8b
8aL
16aL
16aJJ
2ryy
8ryy
=||
16cc#LL
16ddJJ
2..ryy
=
8.eeL
16ff#Jk
8eeL
8cc#J
2ryy
!!linebreak:original
=
8.aaL
16eeJk
16ff#LL
16gg
16aa
16ff#JJ
2ryy
=
8eeL
16aL
16cc#JJ
16eeLL
16ff#
16ee
16aJJ
2ryy
=
8cc#L
8bJ
8bL
16cc#L
16ddJJ
2ryy
=
8.eeL
16ff#Jk
8eeL
8cc#J
2ryy
=
8aaL
8eeJ
16ff#LL
16gg
16aa
16ff#JJ
2ryy
=
8eeL
16aL
16cc#JJ
16eeLL
16ff#
16ee
16cc#JJ
2ryy
!!linebreak:original
=
8b
8aL
16aL
16aJJ
2ryy
8ryy
=||
*M4/4
16aLL
16bJJ
=||
4cc#
16cc#LL
16ee
16dd
16bJJ
2ryy
=
8cc#L
8aJ
16aLL
16a
16cc#
16eeJJ
2ryy
=
8.ff#L
16eeJk
8cc#L
16aaL
16eeJJ
2ryy
=
8cc#L
8bJ
8bL
16aL
16bJJ
4cc#
16cc#LL
16ee
16dd
16bJJ
!!linebreak:original
=
8cc#L
8aJ
16aLL
16a
16cc#
16eeJJ
2ryy
=
8ff#L
8aaJ
16eeLL
16ff#
16ee
16cc#JJ
2ryy
=
8b
8aL
16aL
16aJJ
2ryy
8ryy
=||
4cc#
16cc#LL
16ee
16dd
16bJJ
2ryy
=
8cc#L
8aJ
16aLL
16a
16cc#
16eeJJ
2ryy
=
8.ff#L
16eeJk
8cc#L
16aaL
16eeJJ
2ryy
!!linebreak:original
=
8cc#L
8bJ
8bL
16aL
16bJJ
4cc#
16cc#LL
16ee
16dd
16bJJ
=
8cc#L
8aJ
16aLL
16a
16cc#
16eeJJ
2ryy
=
8ff#L
8aaJ
16eeLL
16ff#
16ee
16cc#JJ
2ryy
=
8b
8aL
16aL
16aJJ
2ryy
8ryy
=||
16cc#LL
16ddJJ
2..ryy
=
8.eeL
16ff#Jk
8eeL
8cc#J
2ryy
!!linebreak:original
=
8.aaL
16eeJk
16ff#LL
16gg
16aa
16ff#JJ
2ryy
=
8eeL
16aL
16cc#JJ
16eeLL
16ff#
16ee
16aJJ
2ryy
=
8cc#L
8bJ
8bL
16cc#L
16ddJJ
2ryy
=
8.eeL
16ff#Jk
8eeL
8cc#J
2ryy
=
8aaL
8eeJ
16ff#LL
16gg
16aa
16ff#JJ
2ryy
=
8eeL
16aL
16cc#JJ
16eeLL
16ff#
16ee
16cc#JJ
2ryy
!!linebreak:original
=
8b
8aL
16aL
16aJJ
2ryy
8ryy
=||
16aLL
16bJJ
2..ryy
=
4cc#
16cc#LL
16cc#J
8eeJ
2ryy
=
8ff#L
16aaL
16ff#JJ
16eeLL
16cc#
16a
16bJJ
2ryy
=
8cc#L
16aL
16cc#JJ
16eeLL
16ff#
16a
16bJJ
2ryy
=
8cc#L
8bJ
8bL
16aL
16bJJ
2ryy
!!linebreak:original
=
4cc#
16cc#LL
16cc#J
8eeJ
2ryy
=
8ff#L
16aaL
16ff#JJ
16eeLL
16cc#
16a
16bJJ
2ryy
=
8cc#L
16aL
16cc#JJ
16eeLL
16ff#
16ee
16cc#JJ
2ryy
=
8b
8aL
16aL
16aJJ
2ryy
8ryy
=||
*M4/4
16aLL
16bJJ
=||
4cc#
16cc#LL
16ee
16dd
16bJJ
2ryy
!!pagebreak:original
=
8cc#L
8aJ
16aLL
16a
16cc#
16eeJJ
2ryy
=
8.ff#L
16eeJk
8cc#L
16aaL
16eeJJ
2ryy
=
8cc#L
8bJ
8bL
16aL
16bJJ
4cc#
16cc#LL
16ee
16dd
16bJJ
=
8cc#L
8aJ
16aLL
16a
16cc#
16eeJJ
2ryy
=
8ff#L
8aaJ
16eeLL
16ff#
16ee
16cc#JJ
2ryy
!!linebreak:original
=
8b
8aL
16aL
16aJJ
2ryy
8ryy
=||
4cc#
16cc#LL
16ee
16dd
16bJJ
2ryy
=
8cc#L
8aJ
16aLL
16a
16cc#
16eeJJ
2ryy
=
8.ff#L
16eeJk
8cc#L
16aaL
16eeJJ
2ryy
=
8cc#L
8bJ
8bL
16aL
16bJJ
4cc#
16cc#LL
16ee
16dd
16bJJ
!!linebreak:original
=
8cc#L
8aJ
16aLL
16a
16cc#
16eeJJ
2ryy
=
8ff#L
8aaJ
16eeLL
16ff#
16ee
16cc#JJ
2ryy
=
8b
8aL
16aL
16aJJ
2ryy
8ryy
=||
16cc#LL
16ddJJ
2..ryy
=
8.eeL
16ff#Jk
8eeL
8cc#J
2ryy
=
8.aaL
16eeJk
16ff#LL
16gg
16aa
16ff#JJ
2ryy
!!linebreak:original
=
8eeL
16aL
16cc#JJ
16eeLL
16ff#
16ee
16aJJ
2ryy
=
8cc#L
8bJ
8bL
16cc#L
16ddJJ
2ryy
=
8.eeL
16ff#Jk
8eeL
8cc#J
2ryy
=
8aaL
8eeJ
16ff#LL
16gg
16aa
16ff#JJ
2ryy
=
8eeL
16aL
16cc#JJ
16eeLL
16ff#
16ee
16cc#JJ
2ryy
=
8b
8aL
16aL
16aJJ
2ryy
8ryy
!!linebreak:original
=||
*M4/4
16aLL
16bJJ
=||
4cc#
16cc#LL
16ee
16dd
16bJJ
2ryy
=
8cc#L
8aJ
16aLL
16a
16cc#
16eeJJ
2ryy
=
8.ff#L
16eeJk
8cc#L
16aaL
16eeJJ
2ryy
=
8cc#L
8bJ
8bL
16aL
16bJJ
4cc#
16cc#LL
16ee
16dd
16bJJ
=
8cc#L
8aJ
16aLL
16a
16cc#
16eeJJ
2ryy
!!linebreak:original
=
8ff#L
8aaJ
16eeLL
16ff#
16ee
16cc#JJ
2ryy
=
8b
8aL
16aL
16aJJ
2ryy
8ryy
=||
4cc#
16cc#LL
16ee
16dd
16bJJ
2ryy
=
8cc#L
8aJ
16aLL
16a
16cc#
16eeJJ
2ryy
=
8.ff#L
16eeJk
8cc#L
16aaL
16eeJJ
2ryy
!!linebreak:original
=
8cc#L
8bJ
8bL
16aL
16bJJ
4cc#
16cc#LL
16ee
16dd
16bJJ
=
8cc#L
8aJ
16aLL
16a
16cc#
16eeJJ
2ryy
=
8ff#L
8aaJ
16eeLL
16ff#
16ee
16cc#JJ
2ryy
=
8b
8aL
16aL
16aJJ
2ryy
8ryy
=||
16cc#LL
16ddJJ
2..ryy
=
8.eeL
16ff#Jk
8eeL
8cc#J
2ryy
!!linebreak:original
=
8.aaL
16eeJk
16ff#LL
16gg
16aa
16ff#JJ
2ryy
=
8eeL
16aL
16cc#JJ
16eeLL
16ff#
16ee
16aJJ
2ryy
=
8cc#L
8bJ
8bL
16cc#L
16ddJJ
2ryy
=
8.eeL
16ff#Jk
8eeL
8cc#J
2ryy
=
8aaL
8eeJ
16ff#LL
16gg
16aa
16ff#JJ
2ryy
=
8eeL
16aL
16cc#JJ
16eeLL
16ff#
16ee
16cc#JJ
2ryy
!!linebreak:original
=
8b
8aL
16aL
16aJJ
2ryy
8ryy
=||
16aLL
16bJJ
2..ryy
=
4cc#
16cc#LL
16cc#J
8eeJ
2ryy
=
8ff#L
16aaL
16ff#JJ
16eeLL
16cc#
16a
16bJJ
2ryy
=
8cc#L
16aL
16cc#JJ
16eeLL
16ff#
16a
16bJJ
2ryy
=
8cc#L
8bJ
8bL
16aL
16bJJ
2ryy
!!linebreak:original
=
4cc#
16cc#LL
16cc#J
8eeJ
2ryy
=
8ff#L
16aaL
16ff#JJ
16eeLL
16cc#
16a
16bJJ
2ryy
=
8cc#L
16aL
16cc#JJ
16eeLL
16ff#
16ee
16cc#JJ
2ryy
=
8b
8aL
16aL
16aJJ
2ryy
8ryy
=||
16cc#LL
16ddJJ
2..ryy
=
8eeL
16aaL
16eeJJ
16ff#LL
16gg
16aa
16ff#JJ
2ryy
!!linebreak:original
=
8eeL
16aaL
16ff#JJ
16eeLL
16cc#
16a
16bJJ
2ryy
=
8cc#L
16aL
16cc#JJ
16eeLL
16ff#
16aa
16eeJJ
2ryy
=
8cc#L
8bJ
8bL
16cc#L
16ddJJ
2ryy
=
8eeL
16aaL
16eeJJ
16ff#LL
16gg
16aa
16ff#JJ
2ryy
=
8eeL
16aaL
16ff#JJ
16eeLL
16cc#
16a
16bJJ
2ryy
!!pagebreak:original
=
8cc#L
16aL
16cc#JJ
16eeLL
16ff#
16ee
16cc#JJ
2ryy
=
8b
8aL
16aL
16aJJ
2ryy
8ryy
=||
*M4/4
16aLL
16bJJ
=||
4cc#
16cc#LL
16ee
16dd
16bJJ
2ryy
=
8cc#L
8aJ
16aLL
16a
16cc#
16eeJJ
2ryy
=
8.ff#L
16eeJk
8cc#L
16aaL
16eeJJ
2ryy
!!linebreak:original
=
8cc#L
8bJ
8bL
16aL
16bJJ
4cc#
16cc#LL
16ee
16dd
16bJJ
=
8cc#L
8aJ
16aLL
16a
16cc#
16eeJJ
2ryy
=
8ff#L
8aaJ
16eeLL
16ff#
16ee
16cc#JJ
2ryy
=
8b
8aL
16aL
16aJJ
2ryy
8ryy
=||
4cc#
16cc#LL
16ee
16dd
16bJJ
2ryy
!!linebreak:original
=
8cc#L
8aJ
16aLL
16a
16cc#
16eeJJ
2ryy
=
8.ff#L
16eeJk
8cc#L
16aaL
16eeJJ
2ryy
=
8cc#L
8bJ
8bL
16aL
16bJJ
4cc#
16cc#LL
16ee
16dd
16bJJ
=
8cc#L
8aJ
16aLL
16a
16cc#
16eeJJ
2ryy
=
8ff#L
8aaJ
16eeLL
16ff#
16ee
16cc#JJ
2ryy
!!linebreak:original
=
8b
8aL
16aL
16aJJ
2ryy
8ryy
=||
16cc#LL
16ddJJ
2..ryy
=
8.eeL
16ff#Jk
8eeL
8cc#J
2ryy
=
8.aaL
16eeJk
16ff#LL
16gg
16aa
16ff#JJ
2ryy
=
8eeL
16aL
16cc#JJ
16eeLL
16ff#
16ee
16aJJ
2ryy
=
8cc#L
8bJ
8bL
16cc#L
16ddJJ
2ryy
!!linebreak:original
=
8.eeL
16ff#Jk
8eeL
8cc#J
2ryy
=
8aaL
8eeJ
16ff#LL
16gg
16aa
16ff#JJ
2ryy
=
8eeL
16aL
16cc#JJ
16eeLL
16ff#
16ee
16cc#JJ
2ryy
=
8b
8aL
16aL
16aJJ
2ryy
8ryy
=||
*M4/4
16aLL
16bJJ
=||
4cc#
16cc#LL
16ee
16dd
16bJJ
2ryy
!!linebreak:original
=
8cc#L
8aJ
16aLL
16a
16cc#
16eeJJ
2ryy
=
8.ff#L
16eeJk
8cc#L
16aaL
16eeJJ
2ryy
=
8cc#L
8bJ
8bL
16aL
16bJJ
4cc#
16cc#LL
16ee
16dd
16bJJ
=
8cc#L
8aJ
16aLL
16a
16cc#
16eeJJ
2ryy
=
8ff#L
8aaJ
16eeLL
16ff#
16ee
16cc#JJ
2ryy
!!linebreak:original
=
8b
8aL
16aL
16aJJ
2ryy
8ryy
=||
4cc#
16cc#LL
16ee
16dd
16bJJ
2ryy
=
8cc#L
8aJ
16aLL
16a
16cc#
16eeJJ
2ryy
=
8.ff#L
16eeJk
8cc#L
16aaL
16eeJJ
2ryy
=
8cc#L
8bJ
8bL
16aL
16bJJ
4cc#
16cc#LL
16ee
16dd
16bJJ
!!linebreak:original
=
8cc#L
8aJ
16aLL
16a
16cc#
16eeJJ
2ryy
=
8ff#L
8aaJ
16eeLL
16ff#
16ee
16cc#JJ
2ryy
=
8b
8aL
16aL
16aJJ
2ryy
8ryy
=||
16cc#LL
16ddJJ
2..ryy
=
8.eeL
16ff#Jk
8eeL
8cc#J
2ryy
=
8.aaL
16eeJk
16ff#LL
16gg
16aa
16ff#JJ
2ryy
!!linebreak:original
=
8eeL
16aL
16cc#JJ
16eeLL
16ff#
16ee
16aJJ
2ryy
=
8cc#L
8bJ
8bL
16cc#L
16ddJJ
2ryy
=
8.eeL
16ff#Jk
8eeL
8cc#J
2ryy
=
8aaL
8eeJ
16ff#LL
16gg
16aa
16ff#JJ
2ryy
=
8eeL
16aL
16cc#JJ
16eeLL
16ff#
16ee
16cc#JJ
2ryy
=
8b
8aL
16aL
16aJJ
2ryy
8ryy
!!linebreak:original
=||
16aLL
16bJJ
2..ryy
=
4cc#
16cc#LL
16cc#J
8eeJ
2ryy
=
8ff#L
16aaL
16ff#JJ
16eeLL
16cc#
16a
16bJJ
2ryy
=
8cc#L
16aL
16cc#JJ
16eeLL
16ff#
16a
16bJJ
2ryy
=
8cc#L
8bJ
8bL
16aL
16bJJ
2ryy
=
4cc#
16cc#LL
16cc#J
8eeJ
2ryy
!!linebreak:original
=
8ff#L
16aaL
16ff#JJ
16eeLL
16cc#
16a
16bJJ
2ryy
=
8cc#L
16aL
16cc#JJ
16eeLL
16ff#
16ee
16cc#JJ
2ryy
=
8b
8aL
16aL
16aJJ
2ryy
8ryy
=||
*M4/4
16aLL
16bJJ
=||
4cc#
16cc#LL
16ee
16dd
16bJJ
2ryy
=
8cc#L
8aJ
16aLL
16a
16cc#
16eeJJ
2ryy
!!pagebreak:original
=
8.ff#L
16eeJk
8cc#L
16aaL
16eeJJ
2ryy
=
8cc#L
8bJ
8bL
16aL
16bJJ
4cc#
16cc#LL
16ee
16dd
16bJJ
=
8cc#L
8aJ
16aLL
16a
16cc#
16eeJJ
2ryy
=
8ff#L
8aaJ
16eeLL
16ff#
16ee
16cc#JJ
2ryy
=
8b
8aL
16aL
16aJJ
2ryy
8ryy
!!linebreak:original
=||
4cc#
16cc#LL
16ee
16dd
16bJJ
2ryy
=
8cc#L
8aJ
16aLL
16a
16cc#
16eeJJ
2ryy
=
8.ff#L
16eeJk
8cc#L
16aaL
16eeJJ
2ryy
=
8cc#L
8bJ
8bL
16aL
16bJJ
4cc#
16cc#LL
16ee
16dd
16bJJ
=
8cc#L
8aJ
16aLL
16a
16cc#
16eeJJ
2ryy
!!linebreak:original
=
8ff#L
8aaJ
16eeLL
16ff#
16ee
16cc#JJ
2ryy
=
8b
8aL
16aL
16aJJ
2ryy
8ryy
=||
16cc#LL
16ddJJ
2..ryy
=
8.eeL
16ff#Jk
8eeL
8cc#J
2ryy
=
8.aaL
16eeJk
16ff#LL
16gg
16aa
16ff#JJ
2ryy
=
8eeL
16aL
16cc#JJ
16eeLL
16ff#
16ee
16aJJ
2ryy
!!linebreak:original
=
8cc#L
8bJ
8bL
16cc#L
16ddJJ
2ryy
=
8.eeL
16ff#Jk
8eeL
8cc#J
2ryy
=
8aaL
8eeJ
16ff#LL
16gg
16aa
16ff#JJ
2ryy
=
8eeL
16aL
16cc#JJ
16eeLL
16ff#
16ee
16cc#JJ
2ryy
=
8b
8aL
16aL
16aJJ
2ryy
8ryy
=||
*M4/4
16aLL
16bJJ
!!linebreak:original
=||
4cc#
16cc#LL
16ee
16dd
16bJJ
2ryy
=
8cc#L
8aJ
16aLL
16a
16cc#
16eeJJ
2ryy
=
8.ff#L
16eeJk
8cc#L
16aaL
16eeJJ
2ryy
=
8cc#L
8bJ
8bL
16aL
16bJJ
4cc#
16cc#LL
16ee
16dd
16bJJ
=
8cc#L
8aJ
16aLL
16a
16cc#
16eeJJ
2ryy
!!linebreak:original
=
8ff#L
8aaJ
16eeLL
16ff#
16ee
16cc#JJ
2ryy
=
8b
8aL
16aL
16aJJ
2ryy
8ryy
=||
4cc#
16cc#LL
16ee
16dd
16bJJ
2ryy
=
8cc#L
8aJ
16aLL
16a
16cc#
16eeJJ
2ryy
=
8.ff#L
16eeJk
8cc#L
16aaL
16eeJJ
2ryy
!!linebreak:original
=
8cc#L
8bJ
8bL
16aL
16bJJ
4cc#
16cc#LL
16ee
16dd
16bJJ
=
8cc#L
8aJ
16aLL
16a
16cc#
16eeJJ
2ryy
=
8ff#L
8aaJ
16eeLL
16ff#
16ee
16cc#JJ
2ryy
=
8b
8aL
16aL
16aJJ
2ryy
8ryy
=||
16cc#LL
16ddJJ
2..ryy
=
8.eeL
16ff#Jk
8eeL
8cc#J
2ryy
!!linebreak:original
=
8.aaL
16eeJk
16ff#LL
16gg
16aa
16ff#JJ
2ryy
=
8eeL
16aL
16cc#JJ
16eeLL
16ff#
16ee
16aJJ
2ryy
=
8cc#L
8bJ
8bL
16cc#L
16ddJJ
2ryy
=
8.eeL
16ff#Jk
8eeL
8cc#J
2ryy
=
8aaL
8eeJ
16ff#LL
16gg
16aa
16ff#JJ
2ryy
=
8eeL
16aL
16cc#JJ
16eeLL
16ff#
16ee
16cc#JJ
2ryy
!!linebreak:original
=
8b
8aL
16aL
16aJJ
2ryy
8ryy
=||
16aLL
16bJJ
2..ryy
=
4cc#
16cc#LL
16cc#J
8eeJ
2ryy
=
8ff#L
16aaL
16ff#JJ
16eeLL
16cc#
16a
16bJJ
2ryy
=
8cc#L
16aL
16cc#JJ
16eeLL
16ff#
16a
16bJJ
2ryy
=
8cc#L
8bJ
8bL
16aL
16bJJ
2ryy
!!linebreak:original
=
4cc#
16cc#LL
16cc#J
8eeJ
2ryy
=
8ff#L
16aaL
16ff#JJ
16eeLL
16cc#
16a
16bJJ
2ryy
=
8cc#L
16aL
16cc#JJ
16eeLL
16ff#
16ee
16cc#JJ
2ryy
=
8b
8aL
16aL
16aJJ
2ryy
8ryy
=||
16cc#LL
16ddJJ
2..ryy
=
8eeL
16aaL
16eeJJ
16ff#LL
16gg
16aa
16ff#JJ
2ryy
!!linebreak:original
=
8eeL
16aaL
16ff#JJ
16eeLL
16cc#
16a
16bJJ
2ryy
=
8cc#L
16aL
16cc#JJ
16eeLL
16ff#
16aa
16eeJJ
2ryy
=
8cc#L
8bJ
8bL
16cc#L
16ddJJ
2ryy
=
8eeL
16aaL
16eeJJ
16ff#LL
16gg
16aa
16ff#JJ
2ryy
=
8eeL
16aaL
16ff#JJ
16eeLL
16cc#
16a
16bJJ
2ryy
!!pagebreak:original
=
8cc#L
16aL
16cc#JJ
16eeLL
16ff#
16ee
16cc#JJ
2ryy
=
8b
8aL
16aL
16aJJ
2ryy
8ryy
=||
*-
